images/vk_footer.svg

<svg width="38" height="22" viewBox="0 0 38 22" fill="none" xmlns="http://www.w3.org/2000/svg">
<path d="M37.6389 1.64234C37.935 2.46667 36.9694 4.36005 34.7421 7.32248C34.4331 7.73464 34.0147 8.28205 33.4869 8.9647C32.9719 9.62158 32.6178 10.0853 32.4247 10.3558C32.2316 10.6262 32.0353 10.945 31.8357 11.3121C31.6362 11.6792 31.5589 11.9497 31.604 12.1236C31.649 12.2974 31.7327 12.5196 31.855 12.7901C31.9773 13.0606 32.1865 13.3375 32.4826 13.6209C32.7788 13.9042 33.1457 14.2456 33.5834 14.6448C33.6349 14.6706 33.6671 14.6964 33.68 14.7221C35.4953 16.4094 36.7248 17.8327 37.3685 18.9919C37.4071 19.0563 37.449 19.1368 37.494 19.2334C37.5391 19.33 37.5841 19.5006 37.6292 19.7454C37.6743 19.9901 37.671 20.2091 37.6195 20.4023C37.5681 20.5955 37.4071 20.7726 37.1368 20.9336C36.8664 21.0946 36.4866 21.1751 35.9974 21.1751L31.0536 21.2523C30.7446 21.3167 30.3841 21.2845 29.9721 21.1557C29.5602 21.0269 29.2254 20.8853 28.9679 20.7307L28.5817 20.4989C28.1955 20.2284 27.7449 19.8162 27.2299 19.2624C26.7149 18.7085 26.274 18.2094 25.907 17.7651C25.5401 17.3207 25.1474 16.9472 24.729 16.6445C24.3106 16.3418 23.9469 16.242 23.6379 16.345C23.5993 16.3579 23.5478 16.3804 23.4834 16.4126C23.4191 16.4448 23.3096 16.5382 23.1551 16.6928C23.0006 16.8473 22.8622 17.0373 22.7399 17.2627C22.6176 17.4881 22.5082 17.823 22.4116 18.2674C22.3151 18.7117 22.2732 19.2108 22.2861 19.7647C22.2861 19.9579 22.2636 20.135 22.2185 20.296C22.1734 20.457 22.1252 20.5761 22.0737 20.6534L21.9964 20.75C21.7647 20.9947 21.4235 21.1364 20.9729 21.1751H18.7521C17.838 21.2266 16.8981 21.1203 15.9326 20.8563C14.967 20.5922 14.1205 20.2509 13.3931 19.8323C12.6657 19.4137 12.0026 18.9887 11.404 18.5572C10.8053 18.1257 10.3515 17.7554 10.0425 17.4463L9.55972 16.9826C9.43098 16.8538 9.25396 16.6606 9.02865 16.403C8.80335 16.1454 8.34309 15.5593 7.64787 14.6448C6.95265 13.7303 6.27031 12.7579 5.60084 11.7275C4.93137 10.6971 4.14281 9.33822 3.23516 7.65092C2.32751 5.96362 1.48746 4.21193 0.714991 2.39583C0.637744 2.18974 0.599121 2.01586 0.599121 1.87418C0.599121 1.7325 0.618433 1.62946 0.657056 1.56506L0.734303 1.44914C0.927419 1.20441 1.29434 1.08205 1.83507 1.08205L7.12646 1.04341C7.28095 1.06917 7.42901 1.11103 7.57063 1.16899C7.71224 1.22695 7.81524 1.28169 7.87961 1.33321L7.97617 1.39118C8.18216 1.53286 8.33665 1.73894 8.43965 2.00942C8.69714 2.65343 8.99325 3.31998 9.32798 4.00906C9.66272 4.69815 9.92665 5.22302 10.1198 5.58366L10.4287 6.14395C10.8021 6.91675 11.1626 7.58652 11.5102 8.15325C11.8578 8.71997 12.17 9.16112 12.4468 9.47668C12.7236 9.79224 12.9908 10.0402 13.2482 10.2205C13.5057 10.4008 13.7246 10.491 13.9048 10.491C14.0851 10.491 14.2589 10.4588 14.4263 10.3944C14.452 10.3815 14.4842 10.3493 14.5228 10.2978C14.5614 10.2463 14.6387 10.1046 14.7546 9.87275C14.8704 9.6409 14.9573 9.33822 15.0153 8.9647C15.0732 8.59117 15.1344 8.06953 15.1987 7.39976C15.2631 6.72999 15.2631 5.92498 15.1987 4.98473C15.173 4.46953 15.115 3.9994 15.0249 3.57436C14.9348 3.14931 14.8447 2.85307 14.7546 2.68563L14.6387 2.45379C14.3168 2.01586 13.7697 1.73894 12.9972 1.62302C12.8298 1.59726 12.862 1.4427 13.0938 1.15933C13.2997 0.91461 13.5444 0.721408 13.8276 0.579726C14.5099 0.244843 16.0484 0.090281 18.4431 0.116041C19.4988 0.128921 20.3678 0.212642 21.0502 0.367204C21.3076 0.431605 21.5233 0.518546 21.6971 0.628027C21.8709 0.737508 22.0029 0.89207 22.093 1.09171C22.1831 1.29135 22.2507 1.49744 22.2958 1.70996C22.3408 1.92248 22.3633 2.2155 22.3633 2.58903C22.3633 2.96255 22.3569 3.31676 22.344 3.65164C22.3312 3.98652 22.3151 4.44055 22.2958 5.01371C22.2764 5.58688 22.2668 6.11819 22.2668 6.60763C22.2668 6.74931 22.2604 7.01979 22.2475 7.41908C22.2346 7.81836 22.2314 8.12749 22.2378 8.34645C22.2443 8.56541 22.2668 8.82623 22.3054 9.12892C22.344 9.4316 22.4181 9.68276 22.5275 9.88241C22.6369 10.082 22.7818 10.2398 22.962 10.3558C23.065 10.3815 23.1744 10.4073 23.2903 10.433C23.4062 10.4588 23.5735 10.388 23.7924 10.2205C24.0113 10.0531 24.2559 9.83088 24.5263 9.55396C24.7966 9.27704 25.1313 8.84555 25.5305 8.25951C25.9296 7.67346 26.3673 6.98115 26.8436 6.18259C27.6161 4.84305 28.3049 3.39404 28.91 1.83554C28.9615 1.70674 29.0259 1.59404 29.1031 1.49744C29.1804 1.40084 29.2512 1.33321 29.3155 1.29457L29.3928 1.23661L29.4893 1.18831L29.7404 1.13035L30.1266 1.12069L35.6884 1.08205C36.1905 1.01765 36.6025 1.03375 36.9243 1.13035C37.2462 1.22695 37.4457 1.33321 37.523 1.44914L37.6389 1.64234Z" fill="white"/>
</svg>

<svg xmlns="http://www.w3.org/2000/svg" width="38" height="22" fill="none"><path fill="#fff" d="M37.639 1.642q.444 1.237-2.897 5.68-.463.619-1.255 1.643-.773.985-1.062 1.39-.29.406-.59.957-.298.55-.231.812.068.26.251.666t.628.83q.444.426 1.1 1.025.078.038.097.077 2.723 2.53 3.688 4.27.06.096.126.241.068.146.135.512.068.367-.01.657-.076.29-.482.532-.405.24-1.14.241l-4.943.077q-.465.098-1.082-.096a4.7 4.7 0 0 1-1.004-.425l-.386-.232q-.58-.405-1.352-1.237a35 35 0 0 1-1.323-1.497 6.4 6.4 0 0 0-1.178-1.12q-.627-.454-1.091-.3-.058.019-.155.068-.096.048-.328.28a2.5 2.5 0 0 0-.415.57q-.184.338-.328 1.004a6.4 6.4 0 0 0-.126 1.498q0 .29-.068.531t-.144.357l-.078.097q-.346.367-1.023.425h-2.22a8.8 8.8 0 0 1-2.82-.319q-1.448-.396-2.54-1.024a23 23 0 0 1-1.989-1.275q-.899-.647-1.361-1.11l-.483-.464a13 13 0 0 1-.531-.58q-.339-.387-1.381-1.758A48 48 0 0 1 5.6 11.727q-1.005-1.545-2.366-4.076a64 64 0 0 1-2.52-5.255 1.5 1.5 0 0 1-.116-.522q0-.213.058-.309l.077-.116q.29-.367 1.101-.367l5.291-.039q.232.039.445.126.212.087.309.164l.096.058q.308.213.464.618.386.966.888 2 .503 1.034.792 1.575l.309.56q.56 1.16 1.081 2.01.522.849.937 1.323.416.473.801.743.387.27.657.271.27 0 .521-.097a.3.3 0 0 0 .097-.096q.057-.078.232-.425.173-.348.26-.908T15.2 7.4t0-2.415a9 9 0 0 0-.174-1.41q-.135-.639-.27-.89l-.116-.231q-.483-.657-1.642-.831-.25-.038.097-.464.309-.367.734-.58Q14.85.079 18.443.117q1.584.02 2.607.251.386.098.647.261.261.164.396.464t.203.618.067.879-.019 1.063q-.02.502-.048 1.362-.03.86-.03 1.594 0 .212-.018.811-.02.6-.01.927.01.33.067.783.058.454.223.753.164.3.434.474.154.039.328.077.174.039.502-.213.33-.251.734-.666.405-.415 1.005-1.294.598-.88 1.313-2.077a31.5 31.5 0 0 0 2.066-4.347q.078-.194.193-.339a.9.9 0 0 1 .212-.202l.078-.058.096-.049.251-.058.387-.01 5.561-.038q.753-.096 1.236.048t.599.32z"/></svg>
